X:4237
L:1/8
M:3/4
K:Dmin
 A,2- | A,2 a2 b2 | g2 (3bgb a>e | f>a (3gag (3fed | d<^c A4 | A,2 a2 b2 | g2 (3bgb a>e | 
 f>a (3gag (3fed | (3ef^g a2 A2 :: f2 d2 f2 | e>d (3^cec d>e | f>a (3gag (3fed | d<^c A4 | 
 f2 d2 f2 | e>d (3^cec d>e | f>a (3gag (3fed | d<^c d4 :|

